!!!SOCIAL_FUNCTION:	miscellaneous dance songs
!!!PDT:	1932
!!!OTL: No_115_Partridge_Dance_Song.krn
!!!REG: Wisconsin
!!!LANG: Non-Tone
!!!LING_GROUP: Algonquin
**kern
*staff1
=1-
*clefF4
*k[b-]
*M2/4
4r
8r
16r
16c\
=2!|:
4c\
4c\
=3
8c\L
8B-\J
8.A\L
16c\Jk
=4
4c\
4A\
=5
8F\L
8F\J
8.F\L
16A\Jk
=6
4A\
4A\
=7
8F\L
8F\J
4F\
=8
4F\
8F\
8r
=9
8A\L
8F\J
4F\
=10
4F\
8F\
16r
16c\
=11:|!
4F\
8F\
8r
==
*-
